img/process.svg

<svg width="1200" height="620" fill="none" xmlns="http://www.w3.org/2000/svg"><path fill="#C1BEE8" d="M0 0H1200V620H0z"/><path stroke="#323537" stroke-width="4.032" stroke-linecap="round" d="M187.962 288.505L379.438 97.028"/><path stroke="#323537" stroke-width="4.032" stroke-linecap="round" d="M173.447 361.075L441.526 92.996"/><path stroke="#323537" stroke-width="4.032" stroke-linecap="round" d="M142 454.61L521.353 75.257"/><path stroke="#323537" stroke-width="4.032" stroke-linecap="round" d="M221.021 432.839L555.22 98.641"/><path stroke="#323537" stroke-width="4.032" stroke-linecap="round" d="M200.863 511.054L621.34 90.578"/><path stroke="#323537" stroke-width="4.032" stroke-linecap="round" d="M288.754 485.251L676.17 97.835"/><path stroke="#323537" stroke-width="4.032" stroke-linecap="round" d="M320.201 510.248L733.421 97.028"/><path stroke="#323537" stroke-width="4.032" stroke-linecap="round" d="M418.574 469.931L804.379 84.127"/><path stroke="#323537" stroke-width="4.032" stroke-linecap="round" d="M419.381 531.213L823.73 126.863"/><path stroke="#323537" stroke-width="4.032" stroke-linecap="round" d="M492.758 524.762L886.625 130.894"/><path stroke="#323537" stroke-width="4.032" stroke-linecap="round" d="M531.462 544.114L957.583 117.993"/><path stroke="#323537" stroke-width="4.032" stroke-linecap="round" d="M613.708 523.956L980.966 156.697"/><path stroke="#323537" stroke-width="4.032" stroke-linecap="round" d="M660.476 540.889L1055.15 146.215"/><path stroke="#323537" stroke-width="4.032" stroke-linecap="round" d="M729.014 530.406L1018.06 241.363"/><path stroke="#323537" stroke-width="4.032" stroke-linecap="round" d="M784.651 536.857L1014.03 307.482"/><path stroke="#323537" stroke-width="4.032" stroke-linecap="round" d="M834.645 552.984L997.899 389.729"/><path stroke="#323537" stroke-width="4.032" stroke-linecap="round" d="M908.827 539.276L1027.73 420.37"/><path stroke="#323537" stroke-width="4.032" stroke-linecap="round" d="M175.06 175.617L282.677 68"/><path stroke="#323537" stroke-width="4.032" stroke-linecap="round" d="M173.447 242.544L338.315 77.676"/><path fill-rule="evenodd" clip-rule="evenodd" d="M369.431 182.148l15.636 55.25-143.075 43.242s-11.718 3.616-18.684-.126c-6.929-3.722-10.934-15.649-10.934-15.649l-28.098-95.758c-2.624-8.679-7.637-25.271-7.637-25.271l21.997-6.648 50.197-14.299c-3.411 21.765 9.163 31.627 26.075 27.282 16.911-4.344 22.675-19.836 9.426-37.177l57.898-17.325 16.345 54.569c19.537-15.198 32.621-9.875 37.584 6.548 4.964 16.423-3.497 27.173-26.73 25.362z" fill="#323537" stroke="#323537" stroke-width="4.032" stroke-linecap="round" stroke-linejoin="round"/><path fill-rule="evenodd" clip-rule="evenodd" d="M734.643 126.459V75.756l136.89-1.305c13.574 2.166 20.361 9.583 20.361 22.253v130.764h-59.669c8.064-21.987 1.613-33.679-16.53-33.679-17.739 0-27.012 12.095-17.739 33.679h-63.313v-65.126c-20.949 9.676-34.657.223-34.657-16.934 0-17.156 11.692-29.431 34.657-18.949z" fill="#FEFEFE" stroke="#323537" stroke-width="4.032" stroke-linecap="round" stroke-linejoin="round"/><path d="M810.724 150.169h-6.46c-.628-2.688-3.458-4.887-4.619-6.336a16.89 16.89 0 0 1-2.038-17.876 16.892 16.892 0 0 1 15.231-9.577 16.898 16.898 0 0 1 16.784 18.815 16.902 16.902 0 0 1-3.599 8.643c-1.162 1.446-3.988 3.645-4.615 6.331h-6.46v-10.56h-4.224v10.56zm10.56 4.224v2.112a4.222 4.222 0 0 1-4.224 4.224h-8.448a4.225 4.225 0 0 1-4.224-4.224v-2.112h16.896z" fill="#323537"/><path fill-rule="evenodd" clip-rule="evenodd" d="M867.048 357.054l17.784-47.483 128.648 46.79c11.96 6.79 15.71 16.117 11.27 27.981-4.45 11.864-19.73 52.684-45.867 122.457l-55.879-20.928c15.263-17.762 13.323-30.974-3.667-37.337-16.612-6.222-29.538 1.853-28.425 25.318l-59.291-22.206 22.842-60.989c-23.012 1.713-32.534-11.947-26.516-28.013 6.017-16.067 21.272-23.461 39.101-5.59zm-354.536-57.372h-70.847l-1.32-142.721c2.19-14.152 9.69-21.229 22.501-21.229h151.055v64.507c-23.174-10.079-38.494 0-38.494 18.546s15.32 26.609 38.494 18.546v62.351h-67.523c13.305 21.508.012 36.425-17.336 36.425s-29.431-14.917-16.53-36.425z" fill="#323537" stroke="#323537" stroke-width="4.032" stroke-linecap="round" stroke-linejoin="round"/><path fill-rule="evenodd" clip-rule="evenodd" d="M504.449 291.619h-70.848l-1.319-142.721c2.19-14.153 9.69-21.229 22.501-21.229h151.055v64.507c-23.174-10.079-38.495 0-38.495 18.546s15.321 26.609 38.495 18.546v62.351h-67.523c13.305 21.508.012 36.425-17.336 36.425s-29.431-14.917-16.53-36.425z" fill="#FEFEFE" stroke="#323537" stroke-width="4.032" stroke-linecap="round" stroke-linejoin="round"/><path d="M502.565 211.642l20.272-20.272 5.416 5.415-3.611 3.61 5.416 5.416-9.026 9.028-5.415-5.416-7.634 7.634a12.774 12.774 0 0 1-3.776 16.186 12.766 12.766 0 0 1-20.282-9.309 12.764 12.764 0 0 1 18.64-12.292zm-2.295 14.931a5.1 5.1 0 0 0 1.178-5.606 5.106 5.106 0 1 0-1.178 5.606z" fill="#323537"/><path fill-rule="evenodd" clip-rule="evenodd" d="M713.291 340.123h65.107l1.305 128.464c-2.166 13.574-9.583 20.361-22.253 20.361H609.864v-59.709c23.196 8.064 32.872.404 32.872-16.529 0-17.74-12.095-24.191-32.872-16.934v-55.653h67.948c-10.886-24.174.18-35.06 17.336-35.06 17.157 0 26.609 11.692 18.143 35.06z" fill="#323537" stroke="#323537" stroke-width="4.032" stroke-linecap="round" stroke-linejoin="round"/><path d="M704.956 412.42l20.272-20.272 5.416 5.415-3.61 3.61 5.415 5.416-9.026 9.028-5.415-5.415-7.634 7.634a12.769 12.769 0 0 1-12.294 18.624 12.766 12.766 0 0 1-8.055-3.691 12.765 12.765 0 0 1 14.931-20.349zm-2.295 14.931a5.12 5.12 0 0 0 1.144-1.657 5.098 5.098 0 0 0-1.081-5.626 5.104 5.104 0 0 0-7.284.063 5.105 5.105 0 0 0 7.221 7.22z" fill="#323537"/><path fill-rule="evenodd" clip-rule="evenodd" d="M705.227 332.06h65.108l1.305 128.463c-2.166 13.574-9.584 20.361-22.253 20.361H601.8v-59.708c23.197 8.063 32.873.403 32.873-16.53 0-17.739-12.095-24.19-32.873-16.933V332.06h67.948c-10.885-24.174.18-35.06 17.337-35.06 17.156 0 26.609 11.692 18.142 35.06z" fill="#FEFEFE" stroke="#323537" stroke-width="4.032" stroke-linecap="round" stroke-linejoin="round"/><path d="M688.496 395.978v-8.87a2.217 2.217 0 0 1 2.217-2.217h28.827a2.217 2.217 0 0 1 2.217 2.217v28.827a2.217 2.217 0 0 1-2.217 2.217h-8.87v8.854a2.23 2.23 0 0 1-2.233 2.233h-28.795a2.217 2.217 0 0 1-1.58-.653 2.233 2.233 0 0 1-.653-1.58l.006-28.795a2.23 2.23 0 0 1 2.233-2.233h8.848zm4.435 0h15.506a2.23 2.23 0 0 1 2.233 2.233v15.506h6.652v-24.391h-24.391v6.652zm-1.102 24.392l12.541-12.544-3.135-3.136-9.406 9.409-4.708-4.706-3.135 3.136 7.843 7.841z" fill="#323537"/><path fill-rule="evenodd" clip-rule="evenodd" d="M457.272 459.243l-13.715 55.758-137.888-31.337s-11.973-2.648-16.179-9.343c-4.185-6.661-1.771-19.009-1.771-19.009l22.902-97.132 5.851-25.743 22.408 5.093 42.842 10.592c-13.723 17.235-7.666 32.023 9.183 36.605 16.849 4.582 29.516-6.037 26.57-27.661l58.894 13.556-12.761 55.517c24.495-3.556 33.238 7.538 29.436 24.267-3.802 16.73-16.471 21.895-35.772 8.837z" fill="#C1BEE8" stroke="#323537" stroke-width="4.032" stroke-linecap="round" stroke-linejoin="round"/><path d="M394.59 419.005l-1.036 4.56-2.28-.518-7.255 31.924a9.352 9.352 0 0 1-11.194 7.048 9.35 9.35 0 0 1-7.048-11.194l7.255-31.923-2.281-.519 1.037-4.56 22.802 5.182zm-15.858 27.57a2.34 2.34 0 0 0-1.036 4.561 2.34 2.34 0 0 0 2.799-1.762 2.34 2.34 0 0 0-1.763-2.799zm-3.005-7.877a2.34 2.34 0 1 0-1.036 4.563 2.34 2.34 0 0 0 1.036-4.563zm10.986-16.687l-9.121-2.073-2.073 9.121 9.121 2.073 2.073-9.121z" fill="#323537"/></svg>

<svg width="1200" height="620" viewBox="0 0 1200 620" fill="none" xmlns="http://www.w3.org/2000/svg">
<rect width="1200" height="620" fill="#C1BEE8"/>
<line x1="187.962" y1="288.505" x2="379.438" y2="97.0282" stroke="#323537" stroke-width="4.03169" stroke-linecap="round"/>
<line x1="173.447" y1="361.075" x2="441.526" y2="92.9965" stroke="#323537" stroke-width="4.03169" stroke-linecap="round"/>
<line x1="142" y1="454.61" x2="521.353" y2="75.257" stroke="#323537" stroke-width="4.03169" stroke-linecap="round"/>
<line x1="221.021" y1="432.839" x2="555.22" y2="98.6409" stroke="#323537" stroke-width="4.03169" stroke-linecap="round"/>
<line x1="200.863" y1="511.054" x2="621.34" y2="90.5775" stroke="#323537" stroke-width="4.03169" stroke-linecap="round"/>
<line x1="288.754" y1="485.251" x2="676.17" y2="97.8345" stroke="#323537" stroke-width="4.03169" stroke-linecap="round"/>
<line x1="320.201" y1="510.248" x2="733.421" y2="97.0281" stroke="#323537" stroke-width="4.03169" stroke-linecap="round"/>
<line x1="418.574" y1="469.931" x2="804.379" y2="84.1268" stroke="#323537" stroke-width="4.03169" stroke-linecap="round"/>
<line x1="419.381" y1="531.213" x2="823.73" y2="126.863" stroke="#323537" stroke-width="4.03169" stroke-linecap="round"/>
<line x1="492.758" y1="524.762" x2="886.625" y2="130.894" stroke="#323537" stroke-width="4.03169" stroke-linecap="round"/>
<line x1="531.462" y1="544.114" x2="957.583" y2="117.993" stroke="#323537" stroke-width="4.03169" stroke-linecap="round"/>
<line x1="613.708" y1="523.956" x2="980.966" y2="156.697" stroke="#323537" stroke-width="4.03169" stroke-linecap="round"/>
<line x1="660.476" y1="540.889" x2="1055.15" y2="146.215" stroke="#323537" stroke-width="4.03169" stroke-linecap="round"/>
<line x1="729.014" y1="530.406" x2="1018.06" y2="241.363" stroke="#323537" stroke-width="4.03169" stroke-linecap="round"/>
<line x1="784.651" y1="536.857" x2="1014.03" y2="307.482" stroke="#323537" stroke-width="4.03169" stroke-linecap="round"/>
<line x1="834.645" y1="552.984" x2="997.899" y2="389.729" stroke="#323537" stroke-width="4.03169" stroke-linecap="round"/>
<line x1="908.827" y1="539.276" x2="1027.73" y2="420.37" stroke="#323537" stroke-width="4.03169" stroke-linecap="round"/>
<line x1="175.06" y1="175.617" x2="282.677" y2="68" stroke="#323537" stroke-width="4.03169" stroke-linecap="round"/>
<line x1="173.447" y1="242.544" x2="338.315" y2="77.676" stroke="#323537" stroke-width="4.03169" stroke-linecap="round"/>
<path fill-rule="evenodd" clip-rule="evenodd" d="M369.431 182.148L385.067 237.398L241.992 280.64C241.992 280.64 230.274 284.256 223.308 280.514C216.379 276.792 212.374 264.865 212.374 264.865L184.276 169.107C181.652 160.428 176.639 143.836 176.639 143.836L198.636 137.188L248.833 122.889C245.422 144.654 257.996 154.516 274.908 150.171C291.819 145.827 297.583 130.335 284.334 112.994L342.232 95.6688L358.577 150.238C378.114 135.04 391.198 140.363 396.161 156.786C401.125 173.209 392.664 183.959 369.431 182.148Z" fill="#323537" stroke="#323537" stroke-width="4.03169" stroke-linecap="round" stroke-linejoin="round"/>
<path fill-rule="evenodd" clip-rule="evenodd" d="M734.643 126.459V75.7559L871.533 74.4507C885.107 76.6167 891.894 84.0343 891.894 96.7036C891.894 109.373 891.894 152.961 891.894 227.468H832.225C840.289 205.481 833.838 193.789 815.695 193.789C797.956 193.789 788.683 205.884 797.956 227.468H734.643V162.342C713.694 172.018 699.986 162.565 699.986 145.408C699.986 128.252 711.678 115.977 734.643 126.459Z" fill="#FEFEFE" stroke="#323537" stroke-width="4.03169" stroke-linecap="round" stroke-linejoin="round"/>
<path d="M810.724 150.169H804.264C803.636 147.481 800.806 145.282 799.645 143.833C797.656 141.348 796.409 138.352 796.049 135.189C795.688 132.027 796.228 128.826 797.607 125.957C798.986 123.088 801.147 120.667 803.842 118.973C806.537 117.278 809.655 116.38 812.838 116.38C816.021 116.381 819.139 117.28 821.834 118.976C824.528 120.671 826.688 123.093 828.066 125.962C829.444 128.832 829.983 132.032 829.622 135.195C829.26 138.357 828.013 141.353 826.023 143.838C824.861 145.284 822.035 147.483 821.408 150.169H814.948V139.609H810.724V150.169ZM821.284 154.393V156.505C821.284 157.625 820.839 158.7 820.046 159.492C819.254 160.284 818.18 160.729 817.06 160.729H808.612C807.492 160.729 806.417 160.284 805.625 159.492C804.833 158.7 804.388 157.625 804.388 156.505V154.393H821.284Z" fill="#323537"/>
<path fill-rule="evenodd" clip-rule="evenodd" d="M867.048 357.054L884.832 309.571L1013.48 356.361C1025.44 363.151 1029.19 372.478 1024.75 384.342C1020.3 396.206 1005.02 437.026 978.883 506.799L923.004 485.871C938.267 468.109 936.327 454.897 919.337 448.534C902.725 442.312 889.799 450.387 890.912 473.852L831.621 451.646L854.463 390.657C831.451 392.37 821.929 378.71 827.947 362.644C833.964 346.577 849.219 339.183 867.048 357.054Z" fill="#323537" stroke="#323537" stroke-width="4.03169" stroke-linecap="round" stroke-linejoin="round"/>
<path fill-rule="evenodd" clip-rule="evenodd" d="M512.512 299.682H441.665L440.345 156.961C442.535 142.809 450.035 135.732 462.846 135.732C475.657 135.732 531.189 135.732 613.901 135.732V200.239C590.727 190.16 575.407 200.239 575.407 218.785C575.407 237.331 590.727 245.394 613.901 237.331V299.682H546.378C559.683 321.19 546.39 336.107 529.042 336.107C511.694 336.107 499.611 321.19 512.512 299.682Z" fill="#323537" stroke="#323537" stroke-width="4.03169" stroke-linecap="round" stroke-linejoin="round"/>
<path fill-rule="evenodd" clip-rule="evenodd" d="M504.449 291.619H433.601L432.282 148.898C434.472 134.745 441.972 127.669 454.783 127.669C467.593 127.669 523.125 127.669 605.838 127.669V192.176C582.664 182.097 567.343 192.176 567.343 210.722C567.343 229.268 582.664 237.331 605.838 229.268V291.619H538.315C551.62 313.127 538.327 328.044 520.979 328.044C503.631 328.044 491.548 313.127 504.449 291.619Z" fill="#FEFEFE" stroke="#323537" stroke-width="4.03169" stroke-linecap="round" stroke-linejoin="round"/>
<path d="M502.565 211.642L522.837 191.37L528.253 196.785L524.642 200.395L530.058 205.811L521.032 214.839L515.617 209.423L507.983 217.057C509.388 219.762 509.781 222.88 509.088 225.849C508.396 228.817 506.664 231.44 504.207 233.243C501.75 235.047 498.728 235.912 495.689 235.682C492.649 235.452 489.792 234.143 487.634 231.991C485.474 229.835 484.158 226.977 483.925 223.934C483.691 220.891 484.556 217.865 486.361 215.405C488.166 212.944 490.793 211.212 493.766 210.522C496.739 209.832 499.86 210.229 502.565 211.642V211.642ZM500.27 226.573C500.757 226.102 501.146 225.539 501.414 224.916C501.682 224.293 501.822 223.623 501.828 222.945C501.834 222.267 501.705 221.594 501.448 220.967C501.191 220.339 500.812 219.769 500.333 219.29C499.853 218.81 499.283 218.431 498.656 218.174C498.028 217.917 497.356 217.788 496.678 217.794C496 217.8 495.33 217.941 494.707 218.208C494.084 218.476 493.52 218.865 493.049 219.353C492.119 220.316 491.604 221.606 491.616 222.945C491.628 224.284 492.165 225.564 493.111 226.511C494.058 227.458 495.339 227.995 496.678 228.007C498.017 228.018 499.307 227.503 500.27 226.573Z" fill="#323537"/>
<path fill-rule="evenodd" clip-rule="evenodd" d="M713.291 340.123H778.398L779.703 468.587C777.537 482.161 770.12 488.948 757.45 488.948C744.781 488.948 684.371 488.948 609.864 488.948V429.239C633.06 437.303 642.736 429.643 642.736 412.71C642.736 394.97 630.641 388.519 609.864 395.776V340.123H677.812C666.926 315.949 677.992 305.063 695.148 305.063C712.305 305.063 721.757 316.755 713.291 340.123Z" fill="#323537" stroke="#323537" stroke-width="4.03169" stroke-linecap="round" stroke-linejoin="round"/>
<path d="M704.956 412.42L725.228 392.148L730.644 397.563L727.034 401.173L732.449 406.589L723.423 415.617L718.008 410.202L710.374 417.836C711.78 420.54 712.172 423.658 711.479 426.627C710.787 429.595 709.055 432.218 706.598 434.021C704.141 435.825 701.119 436.69 698.08 436.46C695.04 436.231 692.183 434.921 690.025 432.769C687.865 430.613 686.55 427.755 686.316 424.712C686.083 421.669 686.947 418.643 688.752 416.183C690.557 413.723 693.184 411.99 696.157 411.3C699.13 410.61 702.251 411.007 704.956 412.42V412.42ZM702.661 427.351C703.148 426.88 703.537 426.317 703.805 425.694C704.073 425.071 704.214 424.401 704.219 423.723C704.225 423.045 704.096 422.372 703.839 421.745C703.583 421.117 703.203 420.547 702.724 420.068C702.245 419.588 701.674 419.209 701.047 418.952C700.419 418.696 699.747 418.566 699.069 418.572C698.391 418.578 697.721 418.719 697.098 418.987C696.475 419.254 695.911 419.643 695.44 420.131C694.51 421.094 693.995 422.384 694.007 423.723C694.019 425.062 694.556 426.342 695.502 427.289C696.449 428.236 697.73 428.773 699.069 428.785C700.408 428.796 701.698 428.282 702.661 427.351Z" fill="#323537"/>
<path fill-rule="evenodd" clip-rule="evenodd" d="M705.227 332.06H770.335L771.64 460.523C769.474 474.097 762.056 480.884 749.387 480.884C736.718 480.884 676.307 480.884 601.8 480.884V421.176C624.997 429.239 634.673 421.579 634.673 404.646C634.673 386.907 622.578 380.456 601.8 387.713V332.06H669.748C658.863 307.886 669.928 297 687.085 297C704.241 297 713.694 308.692 705.227 332.06Z" fill="#FEFEFE" stroke="#323537" stroke-width="4.03169" stroke-linecap="round" stroke-linejoin="round"/>
<path d="M688.496 395.978V387.108C688.496 386.52 688.729 385.956 689.145 385.54C689.561 385.124 690.125 384.891 690.713 384.891H719.54C720.128 384.891 720.692 385.124 721.108 385.54C721.524 385.956 721.757 386.52 721.757 387.108V415.935C721.757 416.523 721.524 417.087 721.108 417.503C720.692 417.919 720.128 418.152 719.54 418.152H710.67V427.006C710.67 428.239 709.675 429.239 708.437 429.239H679.642C679.348 429.24 679.058 429.182 678.787 429.07C678.516 428.958 678.269 428.793 678.062 428.586C677.855 428.379 677.69 428.132 677.578 427.861C677.466 427.59 677.408 427.3 677.409 427.006L677.415 398.211C677.415 396.978 678.411 395.978 679.648 395.978H688.496ZM692.931 395.978H708.437C709.67 395.978 710.67 396.974 710.67 398.211V413.717H717.322V389.326H692.931V395.978ZM691.829 420.37L704.37 407.826L701.235 404.69L691.829 414.099L687.121 409.393L683.986 412.529L691.829 420.37Z" fill="#323537"/>
<path fill-rule="evenodd" clip-rule="evenodd" d="M457.272 459.243L443.557 515.001L305.669 483.664C305.669 483.664 293.696 481.016 289.49 474.321C285.305 467.66 287.719 455.312 287.719 455.312L310.621 358.18C312.63 349.338 316.472 332.437 316.472 332.437L338.88 337.53L381.722 348.122C367.999 365.357 374.056 380.145 390.905 384.727C407.754 389.309 420.421 378.69 417.475 357.066L476.369 370.622L463.608 426.139C488.103 422.583 496.846 433.677 493.044 450.406C489.242 467.136 476.573 472.301 457.272 459.243Z" fill="#C1BEE8" stroke="#323537" stroke-width="4.03169" stroke-linecap="round" stroke-linejoin="round"/>
<path d="M394.59 419.005L393.554 423.565L391.274 423.047L384.019 454.971C382.873 460.01 377.864 463.164 372.825 462.019C367.785 460.873 364.631 455.864 365.777 450.825L373.032 418.902L370.751 418.383L371.788 413.823L394.59 419.005ZM378.732 446.575C377.474 446.289 376.22 447.079 375.934 448.337C375.648 449.596 376.437 450.85 377.696 451.136C378.955 451.422 380.208 450.632 380.495 449.374C380.781 448.115 379.991 446.861 378.732 446.575ZM375.727 438.698C374.468 438.412 373.214 439.201 372.928 440.46C372.642 441.719 373.432 442.972 374.69 443.259C375.949 443.545 377.203 442.755 377.489 441.497C377.775 440.238 376.985 438.984 375.727 438.698ZM386.713 422.011L377.592 419.938L375.519 429.059L384.64 431.132L386.713 422.011Z" fill="#323537"/>
</svg>
